X: 20551
T: ARGYLE IS MY NAME
Q: "Moderato"
%R: jig
B: "Edinburgh Repository of Music" v.2 p.55 #1
F: http://digital.nls.uk/special-collections-of-printed-music/pageturner.cfm?id=87776133
Z: 2015 John Chambers <jc:trillian.mit.edu>
M: 6/8
L: 1/8
K: D
A |\
(Ad)d {e}d>cd | (fe)e e2g | {g}f>ed f<aA | A>Bc d2A |\
(Ad)d {e}d>cd | (fe)e e2{g}a | f>ed (f<a)A | A>Bc "_Fine."d2 |]
a |\
a>fd dfa | {b}a>gf g2b | a>fd dfa | {b}agf eef |\
Tg>ag g>ag | gec A2g | {g}fed (f<a)A | A>Bc "_D.C."d2 |]

%%sep 2 1 500
%%sep 1 1 500

